X:239
T: WENN SICH DIE HAHNEN KRAEHEN
N: E0822
O: Europa, Mitteleuropa, Deutschland, Westfalen
R: Tage - Lied, Kilt - Lied
M: 2/4
L: 1/8
K: D
D | DE=FG | A^GA
c | ddA^G | A2z
A | _BAGB | AG=F
A | G=FEF | D2z

